americans/img/social3.svg

<svg width="21" height="20" viewBox="0 0 21 20" fill="none" xmlns="http://www.w3.org/2000/svg">
<path fill-rule="evenodd" clip-rule="evenodd" d="M10.0811 0.1013C9.60247 0.329377 9.49468 0.592057 9.49468 1.53007C9.49468 1.91082 9.47122 2.17604 9.43548 2.19933C9.40286 2.22061 9.30864 2.21194 9.22604 2.18017C9.14338 2.14839 8.97527 2.09327 8.85239 2.05761C7.36586 1.62675 6.91849 1.50696 6.8937 1.53319C6.8775 1.55029 7.05042 1.9719 7.2779 2.4702C7.90415 3.84185 8.00022 4.0892 8.38581 5.32149C8.59682 5.99587 8.65462 6.22206 8.77001 6.82471C8.99621 8.00571 8.98649 9.31782 8.74583 10.0964C8.55331 10.7192 7.91761 12.0656 7.45148 12.8376C6.92095 13.7164 6.89448 13.7677 6.94508 13.8212C6.96999 13.8476 7.5476 13.8825 8.22859 13.8987L9.46676 13.9282L9.48206 14.9451L9.49731 15.9619L8.05786 15.9622C6.35021 15.9626 6.24728 15.9389 5.74897 15.4314C5.37706 15.0526 5.19415 14.6146 5.19415 14.1028V13.7808H2.59707H0L5.58204e-05 14.2377C0.000111671 15.1661 0.358787 16.4054 0.857314 17.1999C1.69151 18.5293 2.8818 19.4407 4.30053 19.8364L4.88697 20H9.99734C14.7924 20 15.125 19.9934 15.387 19.8931C16.2788 19.5517 16.9636 18.807 18.0522 16.9949C18.2278 16.7023 18.4211 16.3702 18.4817 16.2567C18.9166 15.4416 19.5504 14.8332 20.4694 14.3485L21 14.0686V13.4039C21 13.0384 20.986 12.7245 20.9688 12.7064C20.9517 12.6884 20.87 12.6983 20.7873 12.7285C20.6581 12.7758 19.1801 13.2264 18.6822 13.3704C18.59 13.3971 18.3764 13.4624 18.2074 13.5155C18.0385 13.5686 17.8249 13.6345 17.7327 13.6619C17.6406 13.6892 17.4269 13.7531 17.258 13.8037C17.089 13.8544 16.888 13.9119 16.8112 13.9316C16.7344 13.9513 16.6213 13.9888 16.5598 14.0148C16.4984 14.0408 16.3476 14.0908 16.2247 14.1257C16.1019 14.1607 15.9385 14.2073 15.8617 14.2293C15.7849 14.2513 15.4151 14.5804 15.0399 14.9607C14.0658 15.9481 14.1052 15.9325 12.5944 15.9325H11.3657V14.9303V13.9282L12.1597 13.8987L12.9536 13.8692L13.2414 13.5745C14.4767 12.3095 15.205 11.2389 15.5875 10.1259C15.6938 9.81641 15.7194 9.62365 15.7206 9.12375C15.7222 8.44895 15.6651 8.16918 15.382 7.4649C15.0408 6.61597 14.3886 5.6463 13.4945 4.65842C12.8896 3.99016 11.8414 3.02622 11.5472 2.86764L11.3378 2.75475V1.76628C11.3378 0.901603 11.3241 0.749453 11.2285 0.551618C11.1107 0.307683 10.9646 0.173749 10.6975 0.0646918C10.4649 -0.0302174 10.3418 -0.0229075 10.0811 0.1013ZM5.7421 4.03791C5.69474 4.09545 5.23386 4.84547 4.71791 5.70466C4.20201 6.56385 3.6583 7.45795 3.50963 7.69157C3.36101 7.92518 3.23936 8.13487 3.23936 8.15756C3.23936 8.18032 3.18055 8.28101 3.10867 8.38134C2.74798 8.88471 1.22481 11.5039 1.25101 11.5759C1.27614 11.645 1.66095 11.6586 3.59848 11.6586C5.90614 11.6586 5.91636 11.6581 6.02901 11.5304C6.20299 11.3333 6.89509 9.84601 6.99987 9.44409C7.17798 8.76086 7.11671 7.73083 6.82299 6.47101C6.6594 5.76921 5.99941 3.99217 5.88821 3.95391C5.85526 3.94259 5.78952 3.98038 5.7421 4.03791Z" fill="#FFF8DC"/>
</svg>

<svg width="21" height="20" fill="none" xmlns="http://www.w3.org/2000/svg"><path fill-rule="evenodd" clip-rule="evenodd" d="M10.081.101c-.479.228-.586.491-.586 1.43 0 .38-.024.645-.06.668-.032.022-.126.013-.209-.019a5.794 5.794 0 0 0-.374-.122c-1.486-.431-1.934-.551-1.958-.525-.016.017.156.439.384.937.626 1.372.722 1.62 1.108 2.851.21.675.269.901.384 1.504.226 1.18.216 2.493-.024 3.271-.193.623-.828 1.97-1.295 2.742-.53.878-.557.93-.506.983.025.027.603.062 1.284.078l1.238.03.015 1.016.015 1.017h-1.44c-1.707 0-1.81-.023-2.308-.53a1.826 1.826 0 0 1-.555-1.33v-.321H0v.457c0 .928.359 2.167.857 2.962.835 1.33 2.025 2.24 3.444 2.636l.586.164h5.11c4.795 0 5.128-.007 5.39-.107.892-.341 1.577-1.086 2.665-2.898.176-.293.37-.625.43-.738.435-.815 1.068-1.424 1.987-1.909l.531-.28v-.664c0-.366-.014-.68-.031-.698-.017-.018-.099-.008-.182.023-.129.047-1.607.497-2.105.641-.092.027-.306.092-.475.146a41.46 41.46 0 0 1-.949.288c-.169.05-.37.108-.447.128-.077.02-.19.057-.251.083a3.757 3.757 0 0 1-.335.11l-.363.104c-.077.022-.447.351-.822.732-.974.987-.935.971-2.446.971h-1.228v-2.004l.794-.03.794-.029.287-.294c1.236-1.265 1.964-2.336 2.347-3.45.106-.309.131-.501.133-1.001.001-.675-.056-.955-.339-1.66-.341-.848-.993-1.818-1.887-2.806-.605-.668-1.654-1.632-1.948-1.79l-.21-.113v-.989c0-.864-.013-1.017-.108-1.214-.118-.244-.264-.378-.531-.487-.233-.095-.356-.088-.617.036ZM5.742 4.038c-.047.057-.508.807-1.024 1.667-.516.859-1.06 1.753-1.208 1.987-.149.233-.27.443-.27.466a.893.893 0 0 1-.131.223c-.361.504-1.884 3.123-1.858 3.195.025.069.41.083 2.347.083 2.308 0 2.318 0 2.431-.129.174-.197.866-1.684.97-2.086.179-.683.118-1.713-.176-2.973-.164-.702-.824-2.479-.935-2.517-.033-.011-.098.026-.146.084Z" fill="#FFF8DC"/></svg>
